svgs/weather_today.svg

<svg width="192" height="192" viewBox="0 0 192 192" fill="none" xmlns="http://www.w3.org/2000/svg">
<path d="M111.669 73.1871C111.386 73.2352 111.003 73.0906 110.885 72.8012C106.24 61.5972 94.4508 54.0591 81.5375 54.0591C65.0742 54.0591 51.303 66.0347 50.1789 81.3178C50.1641 81.6899 49.8386 81.9656 49.454 81.9656C36.4668 83.9638 27 94.3547 27 106.689C27 120.511 39.0702 131.756 53.9064 131.756H113.725C131.046 131.756 145.142 118.609 145.142 102.472C145.142 86.3203 131.046 73.1871 113.725 73.1871C113.015 73.1871 112.349 73.1458 111.669 73.1871ZM111.669 73.1871C107.36 72.3879 97.8854 75.7859 90.0093 83.7353" stroke="black" stroke-width="12" stroke-linecap="round"/>
<path d="M136.104 81.7386C144.627 73.2151 144.627 59.3959 136.104 50.8725C127.58 42.3491 113.761 42.3491 105.238 50.8725C102.204 53.9064 100.25 57.6113 99.3755 61.5095" stroke="black" stroke-width="12" stroke-linejoin="round"/>
<path d="M96.1825 42.3513L87.6677 33.8365" stroke="black" stroke-width="8" stroke-linecap="round" stroke-linejoin="round"/>
<path d="M153.657 77.8042L164.268 83.4982" stroke="black" stroke-width="8" stroke-linecap="round" stroke-linejoin="round"/>
<path d="M153.657 54.008L165.27 50.8218" stroke="black" stroke-width="8" stroke-linecap="round" stroke-linejoin="round"/>
<path d="M138.221 36.0687L143.653 25.3217" stroke="black" stroke-width="8" stroke-linecap="round" stroke-linejoin="round"/>
<path d="M114.508 31.9757L113.249 20" stroke="black" stroke-width="8" stroke-linecap="round" stroke-linejoin="round"/>
<path d="M60.9872 146.452H115.817C119.817 146.452 123.572 148.376 125.909 151.622L126.479 152.413C129.565 156.699 129.246 162.557 125.712 166.483V166.483C123.479 168.964 120.23 170.475 116.948 169.859C111.484 168.834 107.491 166.181 107.286 159.757" stroke="black" stroke-width="12" stroke-linecap="round" stroke-linejoin="round"/>
</svg>

<svg width="192" height="192" viewBox="0 0 192 192" fill="none" xmlns="http://www.w3.org/2000/svg"><path d="M111.669 73.187c-.283.048-.666-.096-.784-.386C106.24 61.597 94.451 54.06 81.537 54.06c-16.463 0-30.234 11.976-31.358 27.259-.015.372-.34.648-.725.648C36.467 83.964 27 94.355 27 106.689c0 13.822 12.07 25.067 26.906 25.067h59.819c17.321 0 31.417-13.147 31.417-29.284 0-16.152-14.096-29.285-31.417-29.285-.71 0-1.376-.041-2.056 0Zm0 0c-4.309-.8-13.784 2.599-21.66 10.548" stroke="#000" stroke-width="12" stroke-linecap="round"/><path d="M136.104 81.739c8.523-8.524 8.523-22.343 0-30.867-8.524-8.523-22.343-8.523-30.866 0a21.727 21.727 0 0 0-5.862 10.638" stroke="#000" stroke-width="12" stroke-linejoin="round"/><path d="m96.183 42.351-8.515-8.514M153.657 77.804l10.611 5.694M153.657 54.008l11.613-3.186M138.221 36.069l5.432-10.747M114.508 31.976 113.249 20" stroke="#000" stroke-width="8" stroke-linecap="round" stroke-linejoin="round"/><path d="M60.987 146.452h54.83c4 0 7.755 1.924 10.092 5.17l.57.791a11.226 11.226 0 0 1-.767 14.07v0c-2.233 2.481-5.482 3.992-8.764 3.376-5.464-1.025-9.457-3.678-9.662-10.102" stroke="#000" stroke-width="12" stroke-linecap="round" stroke-linejoin="round"/></svg>
